!!!COA:	Josquin des Prez
!!!CDT:	~1450-1521/08/27
!!!OPR:	Missa Allez regretz I
!!!ONM:	4
!!!OTL:	Sanctus
!!!AGN:	Mass; Sanctus
!!!SCT:	NJE 7.1
!!!SCA:	New Josquin Edition 7.1
!!!voices:	4
!!!voices-OPR:	4
**kern	**kern	**kern	**kern
*staff4	*staff3	*staff2	*staff1
*Ivox	*Ivox	*Ivox	*Ivox
*I"Bassus	*I"Tenor	*I"Altus	*I"Superius
*I'B	*I'T	*I'A	*I'S
*>[A,B,C,D,C]	*>[A,B,C,D,C]	*>[A,B,C,D,C]	*>[A,B,C,D,C]
*>Sanctus[A]	*>Sanctus[A]	*>Sanctus[A]	*>Sanctus[A]
*>Pleni[B]	*>Pleni[B]	*>Pleni[B]	*>Pleni[B]
*>Osanna[C]	*>Osanna[C]	*>Osanna[C]	*>Osanna[C]
*>Benedictus[D]	*>Benedictus[D]	*>Benedictus[D]	*>Benedictus[D]
*>A	*>A	*>A	*>A
*clefF4	*clefGv2	*clefGv2	*clefG2
*k[b-]	*k[b-]	*k[b-]	*k[b-]
*M2/1	*M2/1	*M2/1	*M2/1
*met(C)	*met(C)	*met(C)	*met(C)
=1-	=1-	=1-	=1-
1.F	0r	1.F	0r
2E\	.	2G/	.
=2	=2	=2	=2
1F	0r	2A/	0r
.	.	1c	.
1D	.	.	.
.	.	2B-\	.
=3	=3	=3	=3
2C/	0r	2c\	1.c
1C	.	2G/	.
.	.	2A/	.
2BB-/	.	2B-\	2d/
=4	=4	=4	=4
2C/	0r	1G	1e
2E\	.	.	.
1D	.	1A	1f
=5	=5	=5	=5
0G	0r	2G/	1.g
.	.	2.B-\	.
.	.	4c\	.
.	.	4d\	4f/
.	.	4e\	4g/
=6	=6	=6	=6
1.D	1.F	0f	0a
2E\	2G/	.	.
=7	=7	=7	=7
1F	1A	1F	1r
[1E-	1B-	[1G	[1g
=8	=8	=8	=8
1E-]	1c	1G]	2g/]
.	.	.	4f/
.	.	.	4e/
1D	1d	1A	2f/
.	.	.	4g/
.	.	.	4a/
=9	=9	=9	=9
0G	0B-	2G/	0b-
.	.	1d	.
.	.	2e\	.
=10	=10	=10	=10
1F	1c	1f	1a
1G	1B-	1d	2g/
.	.	.	[2g/
=11	=11	=11	=11
1C	2.G/	1c	2g/]
.	.	.	4f/
.	4A/	.	4e/
2r	2B-\	2d\	2d/
2C/	2c\	2e-i\	[2g/
=12	=12	=12	=12
1D	2.A/	2d\	4g/]
.	.	.	4f/
.	.	2B-\	1f
.	8G/L	.	.
.	8F/J	.	.
1C	1G	1c	.
.	.	.	2e/
=13	=13	=13	=13
2.D\	[0F	2.A/	0f
4C/	.	4B-\	.
2AA/	.	2c\	.
[2BB-/	.	2d\	.
=14	=14	=14	=14
2BB-/]	0F]	2d\	1r
4AA/	.	4c\	.
4GG/	.	4B-\	.
1FF	.	1A	1a
=15	=15	=15	=15
0r	2r	0r	1a
.	1F	.	.
.	.	.	1a
.	[2c\	.	.
=16	=16	=16	=16
0r	2c\]	0r	1g
.	2.B-\	.	.
.	.	.	1cc
.	4A/	.	.
.	2A/	.	.
=17	=17	=17	=17
0r	2G/	0r	2b-\
.	2A/	.	2a/
.	1D	.	4b-\
.	.	.	4a/
.	.	.	4g/
.	.	.	4f/
=18	=18	=18	=18
0r	2.C/	0r	2e/
.	.	.	1e
.	4D/	.	.
.	4E/	.	.
.	4F/	.	.
.	4G/	.	4d/
.	4A/	.	4c/
=19	=19	=19	=19
0r	2B-\	0r	2d/
.	2.A/	.	2.f/
.	4G/	.	4e/
.	[2c\	.	2e/
=20	=20	=20	=20
0r	2c\]	1r	4f/
.	.	.	4e/
.	4B-\	.	4d/
.	4A/	.	4c/
.	1G	1d	1B-
=21	=21	=21	=21
0F	0A	0c	0A
=22	=22	=22	=22
1D	0F	0f	1r
1D	.	.	1A
=23	=23	=23	=23
0C	0G	0e	1.c
.	.	.	4d/
.	.	.	4e/
=24	=24	=24	=24
1D	1F	1.d	1.f
2BB-/	2r	.	.
2C/	[2G/	[2c\	2e/
=25	=25	=25	=25
1GG	4G/]	2c\]	1d
.	4F/	.	.
.	2D/	2B-\	.
1C	1E	1c	1c
=26	=26	=26	=26
1F	2.F/	1A	0d
.	4G/	.	.
1D	2A/	1F	.
.	2B-\	.	.
=27	=27	=27	=27
0C	2c\	[0G	1.e
.	1c	.	.
.	4B-\	.	4d/
.	4A/	.	4c/
=28	=28	=28	=28
0r	1B-	1G]	1d
.	1A	2r	2e/
.	.	4F/	2f/
.	.	4G/	.
=29	=29	=29	=29
1r	2r	4A/	4e/
.	.	4B-\	4d/
.	4F/	1c	1a
.	4G/	.	.
2r	4A/	.	.
.	4B-\	.	.
2C/	2c\	2e-\	[2g/
=30	=30	=30	=30
1D	4B-\	2d\	4g/]
.	4A/	.	4f/
.	4G/	2B-\	1f
.	4F/	.	.
1C	1G	1c	.
.	.	.	2e/
=31	=31	=31	=31
0F	1F	1A	2.f/
.	.	.	4g/
.	2r	2r	4a/
.	.	.	4b-\
.	[2c\	[2F/	[2a/
=32	=32	=32	=32
2r	1.c]	2F/]	2a/]
1C	.	1G	2g/
.	.	.	2e/
[2BB-/	[2d\	[2D/	[2f/
=33	=33	=33	=33
4BB-/]	4d\]	4D/]	4f/]
4C/	4c\	4E/	4e/
2AA/	1c	2F/	4d/
.	.	.	4c/
1GG	.	2G/	1d
.	2B-\	[2G/	.
=34	=34	=34	=34
1C	1c	4G/]	1c
.	.	4E/	.
.	.	2G/	.
1D	1B-	1F	1f
=35	=35	=35	=35
1C	1c	1G	1e
2r	2r	2r	2r
2C/	2c\	2G/	2e/
=36	=36	=36	=36
2D\	2B-\	2F/	2d/
2.C/	1c	2G/	1e
.	.	2A/	.
4AA/	.	.	.
2D\	2B-\	2F/	2d/
=37	=37	=37	=37
0Cl	0cl	0Gl	0el
!!LO:LB:i:g=z
=38||	=38||	=38||	=38||
*>B	*>B	*>B	*>B
*clefF4	*clefGv2	*clefGv2	*clefG2
*k[b-]	*k[b-]	*k[b-]	*k[b-]
*M2/1	*M2/1	*M2/1	*M2/1
*met(C)	*met(C)	*met(C)	*met(C)
!!section: Pleni
!!!OMD: Pleni
0r	1.c	0r	0A
.	2c\	.	.
=39	=39	=39	=39
0r	2B-\	0r	1.d
.	2d\	.	.
.	2B-\	.	.
.	4A/	.	2e/
.	4G/	.	.
=40	=40	=40	=40
0r	2F/	0r	1.f
.	4D/	.	.
.	4E/	.	.
.	4F/	.	.
.	4G/	.	.
.	4A/	.	4e/
.	4B-\	.	4d/
=41	=41	=41	=41
0r	2c\	0r	1c
.	1A	.	.
.	.	.	4c/
.	.	.	4d/
.	4G/	.	4e/
.	4F/	.	4f/
=42	=42	=42	=42
0r	1E	0r	1g
.	2F/	.	2f/
.	2G/	.	[2e/
=43	=43	=43	=43
0r	2A/	0r	2e/]
.	2B-\	.	1d
.	2G/	.	.
.	2A/	.	2c/
=44	=44	=44	=44
0r	2r	0r	1d
.	2.D/	.	.
.	.	.	1d
.	4E/	.	.
.	4F/	.	.
.	4G/	.	.
=45	=45	=45	=45
0r	4A/	0r	2.c/
.	4F/	.	.
.	2c\	.	.
.	.	.	8B-/L
.	.	.	8A/J
.	2B-\	.	2G/
.	2c\	.	[2F/
=46	=46	=46	=46
0r	2A/	0r	2F/]
.	4G/	.	1f
.	4F/	.	.
.	1G	.	.
.	.	.	2e/
=47	=47	=47	=47
0r	1F	0r	1f
.	2r	.	2g/
.	[2f\	.	[2a/
=48	=48	=48	=48
0r	2f\]	0r	2a/]
.	2e\	.	1g
.	1c	.	.
.	.	.	[2cc\
=49	=49	=49	=49
0r	1d	0r	2cc\]
.	.	.	2b-\
.	2c\	.	2cc\
.	[2F/	.	[2a/
=50	=50	=50	=50
0r	2F/]	0r	2a/]
.	4E/	.	4g/
.	4D/	.	4f/
.	1C	.	1e
=51	=51	=51	=51
0r	2r	0r	1f
.	2F/	.	.
.	2G/	.	2e/
.	2A/	.	2f/
=52	=52	=52	=52
0r	1B-	0r	4g/
.	.	.	4f/
.	.	.	4e/
.	.	.	4d/
.	2A/	.	2c/
.	[2B-\	.	[2d/
=53	=53	=53	=53
0r	2B-\]	0r	2d/]
.	2G/	.	2g/
.	4A/	.	2f/
.	4G/	.	.
.	4A/	.	4e/
.	4B-\	.	4d/
=54	=54	=54	=54
0r	2c\	0r	1e
.	2C/	.	.
.	2F/	.	2a/
.	2G/	.	2g/
=55	=55	=55	=55
0r	2.A/	0r	2.cc\
.	4G/	.	4b-\
.	4F/	.	4a/
.	4E/	.	4g/
.	2D/	.	2f/
=56	=56	=56	=56
0r	4BB-/	0r	2.b-\
.	4C/	.	.
.	4D/	.	.
.	4E/	.	4g/
.	4F/	.	2a/
.	4G/	.	.
.	4A/	.	[2f/
.	4G/	.	.
=57	=57	=57	=57
0r	4A/	0r	2f/]
.	4B-\	.	.
.	1c	.	2e/
.	.	.	2.a/
.	2d\	.	.
.	.	.	4f/
=58	=58	=58	=58
0r	2B-\	0r	4b-\
.	.	.	4a/
.	1c	.	4g/
.	.	.	4f/
.	.	.	2e/
.	2B-\	.	[2g/
=59	=59	=59	=59
0r	2A/	0r	2g/]
.	4G/	.	1f
.	4F/	.	.
.	1G	.	.
.	.	.	2e/
=60	=60	=60	=60
0r	0Fl	0r	0fl
!!LO:LB:i:g=z
=61||	=61||	=61||	=61||
*>C	*>C	*>C	*>C
*clefF4	*clefGv2	*clefGv2	*clefG2
*k[b-]	*k[b-]	*k[b-]	*k[b-]
*M2/1	*M2/1	*M2/1	*M2/1
*met(C|)	*met(C|)	*met(C|)	*met(C|)
!!section: Osanna
!!!OMD: Osanna
[0F	0r	[0f	[0a
=62	=62	=62	=62
0F_	0c	0f_	0a]
=63	=63	=63	=63
0F]	1c	0f]	1.a
.	1A	.	.
.	.	.	2a/
=64	=64	=64	=64
0G	2G/	[0d	2b-\
.	1B-	.	1g
.	4A/	.	4f/
.	4G/	.	4g/
=65	=65	=65	=65
0D	0F	1d]	2a/
.	.	.	1f
.	.	1B-	.
.	.	.	4e/
.	.	.	4d/
=66	=66	=66	=66
1C	1G	1c	1e
1BB-	1B-	1d	1r
=67	=67	=67	=67
1.F	0A	0c	0a
2F\	.	.	.
=68	=68	=68	=68
2G\	1.G	2r	0b-
1B-	.	1d	.
4A\	4A/	4c\	.
4G\	4B-\	4B-\	.
=69	=69	=69	=69
1F	1c	1f	1a
2r	2B-\	1d	2.g/
[2G\	[2B-\	.	.
.	.	.	4f/
=70	=70	=70	=70
2G\]	2B-\]	4B-\	4d/
.	.	4c\	4e/
4F\	4A/	4d\	4f/
4E\	4G/	4e\	4g/
2D\	2F/	2f\	1a
2C/	2c\	2e\	.
=71	=71	=71	=71
1D	4B-\	2d\	2r
.	4A/	.	.
.	4G/	2B-\	1f
.	4F/	.	.
1C	1G	1c	.
.	.	.	2e/
=72	=72	=72	=72
1.c	[0F	1.A	[0f
[2A\	.	[2c\	.
=73	=73	=73	=73
2A\]	0F]	2c\]	0f]
1F	.	1A	.
2D\	.	2B-\	.
=74	=74	=74	=74
2.F\	1r	2A/	1r
.	.	1A	.
4E\	.	.	.
1D	1F	.	1f
.	.	2F/	.
=75	=75	=75	=75
2C/	0c	2G/	2e/
1F	.	2A/	2f/
.	.	2F/	2a/
2E\	.	2G/	2g/
=76	=76	=76	=76
1D	0d	2A/	4f/
.	.	.	4g/
.	.	1F	4a/
.	.	.	4f/
1BB-	.	.	4b-\
.	.	.	4a/
.	.	4E/	4g/
.	.	4D/	4f/
=77	=77	=77	=77
0C	1.c	0G	0e
.	2c\	.	.
=78	=78	=78	=78
2r	2B-\	0r	2r
1D	2A/	.	1f
.	2F/	.	.
2BB-/	[2G/	.	2d/
=79	=79	=79	=79
2C/	2G/]	1r	2e/
2AA/	1A	.	1f
1BB-	.	1D	.
.	2G/	.	4e/
.	.	.	4d/
=80	=80	=80	=80
[0AA	[0A	1.E	[0c
.	.	[2F/	.
=81	=81	=81	=81
0AA]	0A]	2F/]	0c]
.	.	4E/	.
.	.	4D/	.
.	.	2C/	.
.	.	[2F/	.
=82	=82	=82	=82
2D\	1r	2F/]	2r
2C/	.	2E/	2cc\
1F	[1A	1F	2a/
.	.	.	[2cc\
=83	=83	=83	=83
2r	0A]	1.c	4cc\]
.	.	.	4b-\
1F	.	.	1a
2D\	.	[2d\	4g/
.	.	.	4f/
=84	=84	=84	=84
1G	1B-	2d\]	1g
.	.	2B-\	.
2D\	1A	2d\	1a
2F\	.	[2c\	.
=85	=85	=85	=85
2C/	2G/	2c\]	2r
2D\	2F/	2A/	1.d
1BB-	4G/	1B-	.
.	4F/	.	.
.	4E/	.	.
.	4D/	.	.
=86	=86	=86	=86
2AA/	0C	2.c\	0e
1.c	.	.	.
.	.	4B-\	.
.	.	4A/	.
.	.	4G/	.
.	.	[2A/	.
=87	=87	=87	=87
1B-	1r	2A/]	1d
.	.	2G/	.
1A	1c	1A	4c/
.	.	.	4d/
.	.	.	4e/
.	.	.	4f/
=88	=88	=88	=88
1G	2.B-\	0r	4g/
.	.	.	4a/
.	.	.	2.b-\
.	4A/	.	.
2r	2G/	.	.
.	.	.	4a/
[2D\	[2d\	.	[2f/
=89	=89	=89	=89
2D\]	2d\]	0r	2f/]
1F	2.c\	.	1a
.	4A/	.	.
2E\	2B-\	.	2g/
=90	=90	=90	=90
1D	1F	0r	4b-\
.	.	.	4a/
.	.	.	4g/
.	.	.	4f/
1C	1G	.	2.e/
.	.	.	4d/
=91	=91	=91	=91
2r	1F	1.A	1f
1D	.	.	.
.	2r	.	2r
2BB-/	[2F/	[2B-\	[2f/
=92	=92	=92	=92
2D\	2F/]	2B-\]	2f/]
1C	1G	1c	1e
2F\	[2A/	[2F/	[2f/
=93	=93	=93	=93
2D\	4A/]	2F/]	2f/]
.	4B-\	.	.
2C/	1c	2G/	1e
2AA/	.	2A/	.
2D\	2B-\	2F/	2d/
=94	=94	=94	=94
1C	1c	1G	1e
1BB-	1d	1B-	1f
=95	=95	=95	=95
0C	[0c	0G	2e/
.	.	.	1f
.	.	.	2e/
=96	=96	=96	=96
[0F	0c_	0F	0f
=97	=97	=97	=97
0F]	0c]	1.f	1r
.	.	.	1a
.	.	2e\	.
=98	=98	=98	=98
0G	0B-	[0d	2g/
.	.	.	1b-
.	.	.	4a/
.	.	.	4g/
=99	=99	=99	=99
0D	[0A	0d]	0f
=100	=100	=100	=100
0F	0A]	0c	2r
.	.	.	1cc
.	.	.	4b-\
.	.	.	4a/
=101	=101	=101	=101
1r	1G	1d	4b-\
.	.	.	4a/
.	.	.	4g/
.	.	.	4f/
2r	1A	[1c	2e/
[2A\	.	.	[2f/
=102	=102	=102	=102
2A\]	2F/	2c\]	2f/]
2F\	2D/	1d	2a/
1G	1E	.	1g
.	.	2c\	.
=103	=103	=103	=103
2.A\	2.D/	2d\	1f
.	.	1d	.
4G\	4E/	.	.
2F\	2F/	.	1r
2E\	2G/	2c\	.
=104	=104	=104	=104
1D	2.A/	1d	1f
.	8G/L	.	.
.	8F/J	.	.
2r	4E/	2e\	2g/
.	4C/	.	.
[2F\	2F/	[2c\	[2a/
=105	=105	=105	=105
2F\]	2A/	2c\]	2a/]
2D\	2B-\	1f	2f/
1C	1G	.	1g
.	.	2e\	.
=106	=106	=106	=106
1F	1F	1f	1a
2r	2r	2r	2r
[2F\	[2f\	[2c\	[2a/
=107	=107	=107	=107
2F\]	2f\]	1c]	2a/]
2C/	2e\	.	2g/
2.F\	1c	[1A	1a
4E\	.	.	.
=108	=108	=108	=108
4D\	1d	2A/]	1f
4C/	.	.	.
2BB-/	.	2B-\	.
1F	[1c	2A/	2r
.	.	4G/	[2f/
.	.	4F/	.
=109	=109	=109	=109
1C	0c]	1G	2f/]
.	.	.	2e/
2.F\	.	2.F/	[1f
4E\	.	4G/	.
=110	=110	=110	=110
4D\	1d	2A/	0f_
4C/	.	.	.
2BB-/	.	2B-\	.
1F	2c\	1c	.
.	2A/	.	.
=111	=111	=111	=111
1D	4B-\	2d\	1f]
.	4A/	.	.
.	4G/	2B-\	.
.	4F/	.	.
2C/	2E/	1c	2r
4F\	[2F/	.	[2c/
4G\	.	.	.
=112	=112	=112	=112
4A\	2F/]	1r	4c/]
4B-\	.	.	4d/
1c	2E/	.	2e/
.	1D	1F	1f
2B-\	.	.	.
=113	=113	=113	=113
1c	1C	1G	1e
2r	2F/	2F/	2f/
2C/	2G/	[2c\	2e/
=114	=114	=114	=114
1F	2.A/	2c\]	2f/
.	.	2F/	2a/
.	4B-\	.	.
2E\	2c\	2G/	2g/
2D\	[2d\	2A/	2f/
=115	=115	=115	=115
2BB-/	2d\]	2D/	2b-\
2C/	2c\	2E/	1a
2D\	2A/	2F/	.
2BB-/	2B-\	2B-\	[2d/
=116	=116	=116	=116
1D	1F	2A/	4d/]
.	.	.	4c/
.	.	2B-\	1f
1C	1G	1c	.
.	.	.	2e/
=117	=117	=117	=117
0Fl	0Fl	0cl	0fl
!!LO:LB:i:g=z
!!LO:TX:rj:i:Y=30:t=fine
=118||	=118||	=118||	=118||
*>D	*>D	*>D	*>D
*clefF4	*clefGv2	*clefGv2	*clefG2
*k[b-]	*k[b-]	*k[b-]	*k[b-]
*M2/1	*M2/1	*M2/1	*M2/1
*met(C)	*met(C)	*met(C)	*met(C)
!!section: Benedictus
!!!OMD: Benedictus
1.C	1.c	0r	0r
2D\	4B-\	.	.
.	4A/	.	.
=119	=119	=119	=119
1E	1G	0r	0r
1F	1A	.	.
=120	=120	=120	=120
1.G	1.B-	0r	0r
4F\	4A/	.	.
4G\	4G/	.	.
=121	=121	=121	=121
0A	0F	0r	0r
=122	=122	=122	=122
1r	1.G	0r	0r
[1G	.	.	.
.	[2E-/	.	.
=123	=123	=123	=123
2G\]	2E-/]	0r	0r
4F\	4D/	.	.
4E\	4C/	.	.
2F\	1D	.	.
4G\	.	.	.
4A\	.	.	.
=124	=124	=124	=124
0B-	2r	0r	0r
.	4BB-/	.	.
.	4C/	.	.
.	4D/	.	.
.	4E/	.	.
.	4F/	.	.
.	4G/	.	.
=125	=125	=125	=125
1A	4A/	0r	0r
.	4B-\	.	.
.	2c\	.	.
2G\	2B-\	.	.
[2G\	4e-\	.	.
.	4d\	.	.
=126	=126	=126	=126
2G\]	4c\	0r	0r
.	4B-\	.	.
4F\	4A/	.	.
4E\	4G/	.	.
2D\	2F/	.	.
[2G\	[2B-\	.	.
=127	=127	=127	=127
2G\]	2B-\]	0r	0r
1F	2A/	.	.
.	1G	.	.
2E\	.	.	.
=128	=128	=128	=128
1F	0F	0r	1.c
1r	.	.	.
.	.	.	2d/
=129	=129	=129	=129
1c	0r	0r	1e
2B-\	.	.	1f
2A\	.	.	.
=130	=130	=130	=130
2G\	0r	0r	1.g
1B-	.	.	.
4A\	.	.	4f/
4G\	.	.	4g/
=131	=131	=131	=131
2F\	0r	0r	0a
4D\	.	.	.
4E\	.	.	.
4F\	.	.	.
4G\	.	.	.
2A\	.	.	.
=132	=132	=132	=132
4F\	0r	0r	1r
4G\	.	.	.
4A\	.	.	.
4B-\	.	.	.
2c\	.	.	[1g
[2B-\	.	.	.
=133	=133	=133	=133
4B-\]	0r	0r	2g/]
4G\	.	.	.
4B-\	.	.	4f/
4c\	.	.	4e/
1A	.	.	2f/
.	.	.	4g/
.	.	.	4a/
=134	=134	=134	=134
0G	0r	0r	0b-
=135	=135	=135	=135
0r	1F	0r	1a
.	2G/	.	2g/
.	[2B-\	.	[2g/
=136	=136	=136	=136
0r	2B-\]	0r	2g/]
.	4A/	.	4f/
.	4G/	.	4e/
.	1B-	.	2d/
.	.	.	[2g/
=137	=137	=137	=137
1r	2F/	0r	4g/]
.	.	.	4f/
.	2A/	.	1f
1C	1G	.	.
.	.	.	2e/
=138	=138	=138	=138
2D\	0F	0r	0f
1F	.	.	.
2D\	.	.	.
=139	=139	=139	=139
2E\	2r	0r	0r
2F\	2c\	.	.
2F\	2A/	.	.
2D\	[2d\	.	.
=140	=140	=140	=140
1E	2d\]	0r	0r
.	1c	.	.
1D	.	.	.
.	2Bni\	.	.
=141	=141	=141	=141
0C	0c	0r	1r
.	.	.	2r
.	.	.	4c/
.	.	.	4d/
=142	=142	=142	=142
1c	0r	0r	4e/
.	.	.	4f/
.	.	.	4g/
.	.	.	4a/
2.B-\	.	.	4b-\
.	.	.	4a/
.	.	.	4g/
4A\	.	.	4f/
=143	=143	=143	=143
4B-\	0r	0r	4g/
4A\	.	.	4f/
4G\	.	.	4e/
4F\	.	.	4d/
1G	.	.	1e
=144	=144	=144	=144
0F	1.F	0r	0f
.	2G/	.	.
=145	=145	=145	=145
0r	1A	0r	2r
.	.	.	1f
.	1B-	.	.
.	.	.	2d/
=146	=146	=146	=146
0r	1.c	0r	2e/
.	.	.	1a
.	4B-\	.	2g/
.	4c\	.	.
=147	=147	=147	=147
2r	0d	0r	2f/
2G\	.	.	2b-\
2F\	.	.	2a/
[2G\	.	.	[2b-\
=148	=148	=148	=148
4G\]	1r	0r	4b-\]
4F\	.	.	4a/
2G\	.	.	4g/
.	.	.	4f/
1C	[1c	.	1e
=149	=149	=149	=149
0r	2c\]	0r	0d
.	4B-\	.	.
.	4A/	.	.
.	2B-\	.	.
.	4c\	.	.
.	4d\	.	.
=150	=150	=150	=150
1C	0e-	0r	0c
4C/	.	.	.
4D\	.	.	.
4E\	.	.	.
4F\	.	.	.
=151	=151	=151	=151
4G\	2.d\	0r	0r
4F\	.	.	.
2.G\	.	.	.
.	4c\	.	.
.	4B-\	.	.
4F\	4A/	.	.
4E\	[2G/	.	.
4D\	.	.	.
=152	=152	=152	=152
2C/	2G/]	0r	1r
2E\	1c	.	.
1D	.	.	1f
.	2Bni\	.	.
=153	=153	=153	=153
1C	0c	0r	1.e
2r	.	.	.
2c\	.	.	2e/
=154	=154	=154	=154
2A\	0r	0r	2.f/
2.B-\	.	.	.
.	.	.	4e/
.	.	.	4d/
4A\	.	.	4c/
4G\	.	.	[2d/
4F\	.	.	.
=155	=155	=155	=155
2G\	0r	0r	2d/]
1A	.	.	2c/
.	.	.	1B-
2G\	.	.	.
=156	=156	=156	=156
1A	0r	0r	1A
1r	.	.	1r
=157	=157	=157	=157
1.F	1.c	0r	1a
.	.	.	[1a
2F\	2c\	.	.
=158	=158	=158	=158
1F	1c	0r	2a/]
.	.	.	2a/
1G	1B-	.	1g
=159	=159	=159	=159
2A\	1A	0r	1cc
2F\	.	.	.
2G\	2r	.	2b-\
2F\	2c\	.	2a/
=160	=160	=160	=160
4G\	1B-	0r	4b-\
4F\	.	.	4a/
4E\	.	.	4g/
4D\	.	.	4f/
[1C	2.c\	.	[1e
.	4B-\	.	.
=161	=161	=161	=161
1C]	4A/	0r	2e/]
.	4G/	.	.
.	2F/	.	4d/
.	.	.	4c/
1r	4B-\	.	1d
.	4A/	.	.
.	4G/	.	.
.	4F/	.	.
=162	=162	=162	=162
1r	2E/	0r	2e/
.	1F	.	4c/
.	.	.	4d/
2r	.	.	4e/
.	.	.	4f/
2C/	2E/	.	[2g/
=163	=163	=163	=163
1F	1D	0r	2g/]
.	.	.	1f
1G	1C	.	.
.	.	.	2e/
=164	=164	=164	=164
2.F\	0r	0r	1.f
4G\	.	.	.
4A\	.	.	.
4B-\	.	.	.
2c\	.	.	2e/
=165	=165	=165	=165
2B-\	0r	0r	2d/
1A	.	.	2c/
.	.	.	1B-
2G\	.	.	.
=166	=166	=166	=166
1A	[0c	0r	2A/
.	.	.	2a/
1r	.	.	2g/
.	.	.	[2cc\
=167	=167	=167	=167
0r	1c]	0r	4cc\]
.	.	.	4b-\
.	.	.	4a/
.	.	.	4g/
.	1d	.	4b-\
.	.	.	4a/
.	.	.	4g/
.	.	.	4f/
=168	=168	=168	=168
0r	2.c\	0r	4g/
.	.	.	4f/
.	.	.	4e/
.	4B-\	.	4d/
.	4A/	.	2c/
.	4G/	.	.
.	2F/	.	[2d/
=169	=169	=169	=169
0r	4B-\	0r	4d/]
.	4A/	.	4c/
.	4G/	.	2d/
.	4F/	.	.
.	2E/	.	2c/
.	[2F/	.	[2d/
=170	=170	=170	=170
2r	2F/]	0r	2d/]
1c	2E/	.	2e/
.	1D	.	2.f/
2B-\	.	.	.
.	.	.	4g/
=171	=171	=171	=171
2.c\	1C	0r	1e
4B-\	.	.	.
4A\	2r	.	2.c/
4G\	.	.	.
2F\	[2c\	.	.
.	.	.	4d/
=172	=172	=172	=172
2E\	2c\]	0r	2e/
2D\	2d\	.	2f/
2G\	2B-\	.	2g/
2F\	2c\	.	[2a/
=173	=173	=173	=173
2D\	2F/	0r	4a/]
.	.	.	4g/
2F\	2A/	.	1f
1C	1G	.	.
.	.	.	2e/
=174	=174	=174	=174
0Fl	0Fl	0r	0fl
!!LO:TX:i:Y=40:rj:t=Osanna ut supra
==	==	==	==
*-	*-	*-	*-
!!!RDF**kern: l=long note in original notation
!!!RDF**kern: i=editorial accidental
!!!RDF**kern: V=start of tuplet marker
!!!RDF**kern: Z=end of tuplet marker
!!!ENC:	Jesse Rodin; Victoria Chang 2012/02/25
!!!END:	2012/02/25/
!!!EED:	Jesse Rodin
!!!EEV:	2012/08/13/
!!attribution-level@Jos: 4 (questionable)
!!!ONB:	Translated from MusicXML and edited on 2012/08/13/ by Craig Sapp
!!muse2ps: T^@{OPR}^u^@{ONM}{. }@{OTL}^C^@{COA}?\n@{SCT}^i2I150v85,85,85,150Q16c120
